src/images/player3/Ferz3.svg

<?xml version="1.0" encoding="utf-8"?>
<svg viewBox="0 0 45 45" width="45" height="45" xmlns="http://www.w3.org/2000/svg">
  <g id="layer1" style="display: inline;" transform="matrix(-1, 0, 0, -1, 45.17831, 46.582306)">
    <path style="fill:#ffdc00;fill-opacity:1;fill-rule:evenodd;stroke:black;stroke-width:1.50000000000000000;stroke-linecap:butt;stroke-linejoin:round;stroke-miterlimit:4;stroke-dasharray:none;stroke-opacity:1" d="M 9,36 C 12.385255,35.027671 19.114744,36.430821 22.5,34 C 25.885256,36.430821 32.614745,35.027671 36,36 C 36,36 37.645898,36.541507 39,38 C 38.322949,38.972328 37.354102,38.986164 36,38.5 C 32.614745,37.527672 25.885256,38.958493 22.5,37.5 C 19.114744,38.958493 12.385255,37.527672 9,38.5 C 7.6458978,38.986164 6.6770511,38.972328 6,38 C 7.3541023,36.055343 9,36 9,36 z " id="path4582"/>
    <path style="fill:#ffdc00;fill-opacity:1;fill-rule:evenodd;stroke:black;stroke-width:1.50000000000000000;stroke-linecap:butt;stroke-linejoin:round;stroke-miterlimit:4;stroke-dasharray:none;stroke-opacity:1" d="M 15,32 C 17.5,34.5 27.5,34.5 30,32 C 30.5,30.5 30,30 30,30 C 30,27.5 27.5,26 27.5,26 C 33,24.5 33.5,14.5 22.5,10.5 C 11.5,14.5 12,24.5 17.5,26 C 17.5,26 15,27.5 15,30 C 15,30 14.5,30.5 15,32 z " id="path4584"/>
    <path style="opacity:1;fill:#ffdc00;fill-opacity:1;stroke:black;stroke-width:1.50000000000000000;stroke-linecap:butt;stroke-linejoin:round;stroke-miterlimit:4;stroke-dasharray:none;stroke-opacity:1" id="path4586" d="M 25 10 A 2.5 2.5 0 1 1  20,10 A 2.5 2.5 0 1 1  25 10 z" transform="translate(0, -2)"/>
    <path style="fill: none; fill-opacity: 0.75; fill-rule: evenodd; stroke: black; stroke-width: 1.5; stroke-linecap: butt; stroke-linejoin: miter; stroke-miterlimit: 4; stroke-dasharray: none; stroke-opacity: 1;" d="M 17.5,26 L 27.5,26" id="path4588"/>
    <path style="fill: none; fill-opacity: 0.75; fill-rule: evenodd; stroke: black; stroke-width: 1.5; stroke-linecap: butt; stroke-linejoin: miter; stroke-miterlimit: 4; stroke-dasharray: none; stroke-opacity: 1;" d="M 15,30 L 30,30" id="path4590"/>
    <path style="fill: none; fill-opacity: 0.75; fill-rule: evenodd; stroke: black; stroke-width: 1.5; stroke-linecap: round; stroke-linejoin: miter; stroke-miterlimit: 4; stroke-dasharray: none; stroke-opacity: 1;" d="M 22.5,15.5 L 22.5,20.5" id="path4592"/>
    <path style="fill: none; fill-opacity: 0.75; fill-rule: evenodd; stroke: black; stroke-width: 1.5; stroke-linecap: round; stroke-linejoin: miter; stroke-miterlimit: 4; stroke-dasharray: none; stroke-opacity: 1;" d="M 20,18 L 25,18" id="path4594"/>
  </g>
</svg>

<svg width="45" height="45" xmlns="http://www.w3.org/2000/svg" xmlns:undefined="http://sodipodi.sourceforge.net/DTD/sodipodi-0.dtd" xmlns:undefined="http://www.inkscape.org/namespaces/inkscape" version="1.0">

 <metadata id="metadata3133">image/svg+xml</metadata>
 <g>
  <title>Layer 1</title>
  <g transform="rotate(180 22.5 22.1571)" display=" inline" id="layer1"  >
   <path stroke-miterlimit="4" stroke-linejoin="round" stroke-width="1.5" stroke="black" fill-rule="evenodd" fill="#ffdc00"  id="path4582" d="m9,36c3.38526,-0.97233 10.11474,0.43082 13.5,-2c3.38526,2.43082 10.11474,1.02767 13.5,2c0,0 1.6459,0.54151 3,2c-0.67705,0.97233 -1.6459,0.98616 -3,0.5c-3.38526,-0.97233 -10.11474,0.45849 -13.5,-1c-3.38526,1.45849 -10.11474,0.02767 -13.5,1c-1.3541,0.48616 -2.32295,0.47233 -3,-0.5c1.3541,-1.94466 3,-2 3,-2z"/>
   <path stroke-miterlimit="4" stroke-linejoin="round" stroke-width="1.5" stroke="black" fill-rule="evenodd" fill="#ffdc00"  id="path4584" d="m15,32c2.5,2.5 12.5,2.5 15,0c0.5,-1.5 0,-2 0,-2c0,-2.5 -2.5,-4 -2.5,-4c5.5,-1.5 6,-11.5 -5,-15.5c-11,4 -10.5,14 -5,15.5c0,0 -2.5,1.5 -2.5,4c0,0 -0.5,0.5 0,2z"/>
   <path stroke-miterlimit="4" stroke-linejoin="round" stroke-width="1.5" stroke="black" fill="#ffdc00" d="m25,8a2.5,2.5 0 1 1 -5,0a2.5,2.5 0 1 1 5,0z"     id="path4586" />
   <path stroke-dasharray=" none" stroke-miterlimit="4" stroke-linejoin=" miter" stroke-linecap=" butt" stroke-width="1.5" stroke=" black" fill-rule=" evenodd" fill-opacity="0.75" fill=" none"  id="path4588" d="m17.5,26l10,0"/>
   <path stroke-dasharray=" none" stroke-miterlimit="4" stroke-linejoin=" miter" stroke-linecap=" butt" stroke-width="1.5" stroke=" black" fill-rule=" evenodd" fill-opacity="0.75" fill=" none"  id="path4590" d="m15,30l15,0"/>
   <path stroke-dasharray=" none" stroke-miterlimit="4" stroke-linejoin=" miter" stroke-linecap=" round" stroke-width="1.5" stroke=" black" fill-rule=" evenodd" fill-opacity="0.75" fill=" none" id="path4592" d="m22.5,15.5l0,5"/>
   <path stroke-dasharray=" none" stroke-miterlimit="4" stroke-linejoin=" miter" stroke-linecap=" round" stroke-width="1.5" stroke=" black" fill-rule=" evenodd" fill-opacity="0.75" fill=" none" id="path4594" d="m20,18l5,0"/>
  </g>
  <g display=" inline"  id="layer2" />
 </g>
</svg>
